X:1
T:Shout! Shout for Joy
T:Shout! Shout for Joy
T:Joseph Lincoln Hall
T:Lizzie Douglas Foulks DeArmond, 1900
T:Public Domain Courtesy of the Cyber Hymnal™
T:Public Domain Courtesy of the Cyber Hymnal™
C:Joseph Lincoln Hall
Z:Public Domain
Z:Courtesy of the Cyber Hymnal™
%%score ( 1 2 ) ( 3 4 )
L:1/8
Q:1/4=100
M:4/4
K:C
V:1 treble 
V:2 treble 
V:3 bass 
V:4 bass 
V:1
 [Ec]2 [^DB]>[DA] [EG]3 E | FGAB c2 G2 | [FA]2 [FA]>[FA] [EG]2 [Ec]2 | [^FB][FA][FB][Fc] [=Fd]4 | %4
w: 1.~Shout! Shout for joy, and|sing a- loud with glad- ness!|Lo! In the east the|star of hope ap- pears;|
w: 2.~Not with des- pair, we|view the grave’s cold por- tals,|Je- sus has robbed it|of the dark- some gloom;|
w: 3.~We, too, shall rise from|glo- ry un- to glo- ry,|Free from earth’s fet- ters,|clad with right- eous- ness;|
 [Ge]2 [Fd]>[Ec] [EG]3 G | ABcd e2 c2 | [Fd]2 [Fc]>[FA] [EG]2 [Ec]2 | [Fc][FB][FA][FB] [Ec]4 || %8
w: Je- sus has ris- en|from the tomb tri- umph- ant,|Van- quished is death thro’|all the com- ing years.|
w: On- ly the pas- sage-|way from earth to Hea- ven,|Bright with God’s light, is|the once dread- ed tomb.|
w: Shout! Shout for joy, ye|an- gels, join the cho- rus;|He lives! The Christ, for-|ev- er- more to bless.|
"^Refrain" [CEGc]8 | [CEA]8 | [D^FAd]8 | [DFGB]8 | [Ge]2 [Fd]>[Ec] [EG]3 G | ABcd e2 c2 | %14
w: ||||||
w: Shout!|Shout!|Shout!|Shout!|Shout for joy, and sing|a- loud with glad- ness, Van-|
w: ||||||
 [Fd]2 [Fc]>[FA] [EG]2 [Ec]2 | [Fc][FB][FA][FB] [Ec]4 |] %16
w: ||
w: quished is death thro’ all|the com- ing years. *|
w: ||
V:2
 x7 E | FGAB c2 G2 | x8 | x8 | x7 G | ABcd e2 c2 | x8 | x8 || x8 | x8 | x8 | x8 | x7 G | %13
 ABcd e2 c2 | x8 | x8 |] %16
V:3
 [C,G,]2 [C,^F,]>[C,F,] [C,G,]3 E, | F,G,A,B, C2 G,2 | [F,C]2 [F,C]>[F,C] [G,C]2 [G,C]2 | %3
 [D,A,][D,A,][D,D][D,C] [G,B,]4 | [C,C]2 [C,C]>[C,C] [C,C]3 G, | A,B,CD E2 C2 | %6
 [F,A,]2 [F,A,]>[F,C] [G,C]2 [G,C]2 | [G,D][G,D][G,D][G,D] [C,C]4 || %8
 ([C,,C,]2 [C,,C,]>[D,,D,] [E,,E,]2 [C,,C,]2) | %9
 ([F,,,A,,]2 [F,,,A,,]>[G,,,B,,] [A,,,C,]2 [F,,,A,,]2) | %10
 ([D,,D,]2 [D,,D,]>[D,,E,] [^F,,^F,]2 [D,,D,]2) | ([G,,G,]2 [G,,G,]>[A,,A,] [B,,B,]2 [G,,G,]2) | %12
 [C,C]2 [C,C]>[C,C] [C,C]3 G, | A,B,CD E2 C2 | [F,A,]2 [F,A,]>[F,C] [G,C]2 [G,C]2 | %15
 [G,D][G,D][G,D][G,D] [C,C]4 |] %16
V:4
 x7 E, | F,G,A,B, C2 G,2 | x8 | x8 | x7 G, | A,B,CD E2 C2 | x8 | x8 || x8 | x8 | x8 | x8 | x7 G, | %13
 A,B,CD E2 C2 | x8 | x8 |] %16

